X: 113
T: O Venus bant
%%abc-version 2.0
%%abcx-abcm2ps-target-version 5.9.1 (29 Sep 2008)
%%abc-creator hum2abc beta
%%abcx-conversion-date 2022/03/06 13:06:00
%%abc-copyright Copyright 2018, Kolb, Paul
%%abc-edited-by Zybina, Karina
%%humdrum-veritas 483687494
%%humdrum-veritas-data 1333882462
%%linebreak <none>
%%barnumbers 0
L: 1/4
M: 2/2
N: Derived from Gas0507-O_Venus_bant.krn
V: 1 clef=treble
V: 2 clef=treble-8
V: 3 clef=bass
K: F
[V:1] G>FDE- | 
[V:2] G4 | 
[V:3] G,,>A,,B,,C,- | 
[V:1] EF>EF | 
[V:2] A2A2 | 
[V:3] C,D,>C,D, | 
[V:1] G2DE | 
[V:2] G4 | 
[V:3] E,>F, G,/F,/G,- | 
[V:1] DG>AB | 
[V:2] z2G2 | 
[V:3] G,/A,/B,2A,/G,/ | 
[V:1] c/B/A/G<^FE/ | 
[V:2] A2A2 | 
[V:3] F,>E,D,2 | 
[V:1] G2G2 | 
[V:2] G4 | 
[V:3] G,,C,>D,E, | 
[V:1] G>FED | 
[V:2] z2G2 | 
[V:3] C,E,>F,G, | 
[V:1] ECc2 | 
[V:2] c3c | 
[V:3] C,F,>G,A, | 
[V:1] A2A/G/A/B/ | 
[V:2] c2c3/B/ | 
[V:3] F,A,>B,C/D/ | 
[V:1] c2Ac- | 
[V:2] A2A3/G/ | 
[V:3] CF,>G,A,/B,/ | 
[V:1] c/B/A/G<FE/ | 
[V:2] A2A2 | 
[V:3] A,D,>E,F,/G,/ | 
[V:1] AA2G/F/ | 
[V:2] c2c2 | 
[V:3] F,F,,>G,,A,,/B,,/ | 
[V:1] E>FG3/F/ | 
[V:2] G2G2 | 
[V:3] C,>B,,G,,3/A,,/ | 
[V:1] DF>GA | 
[V:2] d4 | 
[V:3] B,,/C,/D,2F, | 
[V:1] Gd2B- | 
[V:2] B2G2 | 
[V:3] G,/A,/B,/C/DG, | 
[V:1] BA/G<^FE/ | 
[V:2] A4 | 
[V:3] F,>E,D,2 | 
[V:1] G4 | 
[V:2] G4- | 
[V:3] G,,>A,,B,,C, | 
[V:1] z2G2 | 
[V:2] G4 | 
[V:3] G,,C,>D,E,- | 
[V:1] G2G2 | 
[V:2] z2G2 | 
[V:3] E,/F,<G,F,/E, | 
[V:1] A2A2 | 
[V:2] d2d2 | 
[V:3] D,F,>E,F, | 
[V:1] G3c- | 
[V:2] e2e2 | 
[V:3] C,C>B,C | 
[V:1] c=B/A/B2 | 
[V:2] d2d2 | 
[V:3] G,2zG, | 
[V:1] c>BGA | 
[V:2] c4 | 
[V:3] A,G,/F,/E,F, | 
[V:1] GA2G/F/ | 
[V:2] z2c2 | 
[V:3] C,F,>G,A,- | 
[V:1] EA2A | 
[V:2] c2c2 | 
[V:3] A,/G,<F,G,/A,/B,/ | 
[V:1] A2A2 | 
[V:2] A2A2 | 
[V:3] C2CF,,- | 
[V:1] A3G/F/ | 
[V:2] c2c2 | 
[V:3] F,,/F,,<F,,G,,/A,,/B,,/ | 
[V:1] E3G- | 
[V:2] G2G2 | 
[V:3] C,2C,G,,- | 
[V:1] G/A/BcA- | 
[V:2] d2c2 | 
[V:3] G,,G,A,F, | 
[V:1] AG/F/G2 | 
[V:2] B4 | 
[V:3] G,2zG, | 
[V:1] A2A2 | 
[V:2] A4- | 
[V:3] D,3C,/B,,/ | 
[V:1] c3B | 
[V:2] A4 | 
[V:3] A,,A,>B,C- | 
[V:1] A3G/F/ | 
[V:2] z2A2 | 
[V:3] C/B,/A,/G,/F,E,/D,/ | 
[V:1] E>FGA- | 
[V:2] c2c2 | 
[V:3] C,>D,E,F,- | 
[V:1] A/B<cB/A/G/ | 
[V:2] A2A2 | 
[V:3] F,/G,<A,G,/F,/E,/ | 
[V:1] FGFG- | 
[V:2] d4 | 
[V:3] D,/C,/B,,/A,,/G,,G,/A,/ | 
[V:1] GFG2 | 
[V:2] B2G2 | 
[V:3] B,/G,/DG,,/A,,/=B,,/G,,/ | 
[V:1] ^FG2F | 
[V:2] A4 | 
[V:3] D,C,D,2 | 
[V:1] G4 |]  
[V:2] G4 |]  
[V:3] G,,4 |]  


